X: 223
T: You huayuan
%%abc-version 2.0
%%abcx-abcm2ps-target-version 5.9.1 (29 Sep 2008)
%%abc-creator hum2abc beta
%%abcx-conversion-date 2013/10/02 07:52:29
%%abc-edited-by Helmut Schaffrath
%%humdrum-veritas 595901462
%%humdrum-veritas-data 4084029086
%%continueall 1
%%barnumbers 0
L: 1/8
M: 2/4
K: G
d BA2 [I:setbarnb 1]| 
d B/ d/A2 | 
d d B d | 
B AG2 | 
A G A A | 
Bd3 | 
d A B A | 
G ED2 | 
A A/ B/d2 | 
E/ G/ AD2 | 
d> B A/ B/ A/ G/ | 
E/ G/ AD2 | 
A A B/ A/ G | 
A4 | 
d B d d | 
E B A E | 
GD2z | 
dA2z | 
A/ G/ ED2 |]  



